qml/icons/navigation/fork-right-black.svg

<svg id="WORKING_ICONS" data-name="WORKING ICONS" xmlns="http://www.w3.org/2000/svg" width="20" height="20" viewBox="0 0 20 20">
  <title>direction</title>
  <path fill="#000000" d="M2.27386,6.57682A0.30457,0.30457,0,0,1,2.47,6.64864L4.544,8.39882A7.00218,7.00218,0,0,1,6.81586,14.043v3.46088A0.29651,0.29651,0,0,1,6.51968,17.8H5.51318A0.29613,0.29613,0,0,1,5.217,17.50343L5.22079,13.9146a5.42,5.42,0,0,0-1.73517-4.316L1.42825,7.86274a0.30461,0.30461,0,0,1-.03372-0.43226l0.649-.74859a0.30466,0.30466,0,0,1,.23035-0.10507m0-.2a0.50345,0.50345,0,0,0-.38147.17406l-0.649.74859a0.50458,0.50458,0,0,0,.05588.71613L3.35666,9.75146a5.2182,5.2182,0,0,1,1.665,4.14405L5.017,17.50317A0.49617,0.49617,0,0,0,5.51318,18h1.0065a0.49616,0.49616,0,0,0,.49615-0.49615V14.043A7.25157,7.25157,0,0,0,4.676,8.24854L2.599,6.49579a0.50264,0.50264,0,0,0-.32516-0.119h0ZM11.0083,7.98169h1.98755a0.3576,0.3576,0,0,1,.37738.54248L12.02948,11.476a0.38659,0.38659,0,0,0,.62354.40942L19,7,12.653,2.078a0.38659,0.38659,0,0,0-.62354.40942l1.34375,2.95184a0.35757,0.35757,0,0,1-.37738.54242H11.0083V5.97986l-0.011.00183a6.06019,6.06019,0,0,0-5.989,6.07324V16H5.01141l-0.002,1.50317A0.49614,0.49614,0,0,0,5.50562,18H6.51208a0.49622,0.49622,0,0,0,.49622-0.49622V12.05493a4.05782,4.05782,0,0,1,3.98877-4.07324H11.0083Z"/>
</svg>

<svg data-name="WORKING ICONS" xmlns="http://www.w3.org/2000/svg" width="20" height="20"><path d="M2.274 6.577a.305.305 0 0 1 .196.072l2.074 1.75a7.002 7.002 0 0 1 2.272 5.644v3.46a.297.297 0 0 1-.296.297H5.513a.296.296 0 0 1-.296-.297l.004-3.588a5.42 5.42 0 0 0-1.735-4.316L1.428 7.863a.305.305 0 0 1-.033-.433l.649-.748a.305.305 0 0 1 .23-.105m0-.2a.503.503 0 0 0-.382.174l-.649.748a.505.505 0 0 0 .056.717L3.357 9.75a5.218 5.218 0 0 1 1.665 4.145l-.005 3.607a.496.496 0 0 0 .496.497H6.52a.496.496 0 0 0 .496-.496v-3.461a7.252 7.252 0 0 0-2.34-5.794L2.599 6.496a.503.503 0 0 0-.325-.12Zm8.734 1.605h1.988a.358.358 0 0 1 .377.542l-1.344 2.952a.387.387 0 0 0 .624.41L19 7l-6.347-4.922a.387.387 0 0 0-.624.41l1.344 2.951a.358.358 0 0 1-.377.543h-1.988V5.98l-.01.002a6.06 6.06 0 0 0-5.99 6.073V16h.003l-.002 1.503a.496.496 0 0 0 .497.497h1.006a.496.496 0 0 0 .496-.496v-5.45a4.058 4.058 0 0 1 3.99-4.072h.01Z"/></svg>
